img/github-pull-requests-board-logo.svg

<svg width="522" height="704" viewBox="0 0 522 704" fill="none" xmlns="http://www.w3.org/2000/svg"><g filter="url(#filter0_d_421_4547)"><path d="M311.25 0h-249C28.013 0 .311 30.95.311 68.778L0 619.005c0 37.828 27.701 68.778 61.939 68.778H435.75c34.237 0 62.25-30.95 62.25-68.778v-412.67L311.25 0zm-31.125 206.335V51.584l140.062 154.751H280.125z" fill="#F7FF1A"/></g><g filter="url(#filter1_d_421_4547)"><path fill-rule="evenodd" clip-rule="evenodd" d="M280.027 69.055h-224c-30.8 0-55.72 27.842-55.72 61.872l-.28 494.984c0 34.03 24.92 61.873 55.72 61.873h336.28c30.8 0 56-27.843 56-61.873V254.673l-168-185.618zm-28 185.618V115.459l126 139.214h-126zM132.909 567.758c-10.035 0-18.17 8.135-18.17 18.17 0 10.034 8.135 18.169 18.17 18.169 10.034 0 18.169-8.135 18.169-18.169 0-10.035-8.135-18.17-18.169-18.17zm-.023-191.458c-10.024-.012-18.147-8.142-18.147-18.169 0-10.035 8.135-18.17 18.17-18.17 10.034 0 18.169 8.135 18.169 18.17 0 10.027-8.123 18.157-18.147 18.169h-.045zm-15.977 29.395c-19.863-6.679-34.17-25.451-34.17-47.564 0-27.708 22.462-50.17 50.17-50.17 27.707 0 50.169 22.462 50.169 50.17 0 22.113-14.307 40.885-34.169 47.564v132.668c19.862 6.679 34.169 25.451 34.169 47.565 0 27.707-22.462 50.169-50.169 50.169-27.708 0-50.17-22.462-50.17-50.169 0-22.114 14.307-40.886 34.17-47.565V405.695zm141.212-104.437c6.248 6.248 6.248 16.379 0 22.627l-18.246 18.246h32.559a58.712 58.712 0 0158.712 58.712v137.52c19.862 6.679 34.169 25.451 34.169 47.565 0 27.707-22.461 50.169-50.169 50.169s-50.17-22.462-50.17-50.169c0-22.114 14.307-40.886 34.17-47.565v-137.52a26.71 26.71 0 00-26.712-26.712h-32.559l18.246 18.246c6.248 6.248 6.248 16.379 0 22.627-6.249 6.248-16.379 6.248-22.628 0l-45.559-45.559c-6.249-6.249-6.249-16.379 0-22.628l45.559-45.559c6.249-6.249 16.379-6.249 22.628 0zm57.025 266.5c-10.035 0-18.17 8.135-18.17 18.17 0 10.034 8.135 18.169 18.17 18.169 10.035 0 18.169-8.135 18.169-18.169 0-10.035-8.134-18.17-18.169-18.17z" fill="#000"/></g><defs><filter id="filter0_d_421_4547" x="0" y="0" width="522" height="703.783" filterUnits="userSpaceOnUse" color-interpolation-filters="sRGB"><feFlood flood-opacity="0" result="BackgroundImageFix"/><feColorMatrix in="SourceAlpha" values="0 0 0 0 0 0 0 0 0 0 0 0 0 0 0 0 0 0 127 0" result="hardAlpha"/><feOffset dx="16" dy="8"/><feGaussianBlur stdDeviation="4"/><feComposite in2="hardAlpha" operator="out"/><feColorMatrix values="0 0 0 0 0.968627 0 0 0 0 1 0 0 0 0 0.101961 0 0 0 0.2 0"/><feBlend in2="BackgroundImageFix" result="effect1_dropShadow_421_4547"/><feBlend in="SourceGraphic" in2="effect1_dropShadow_421_4547" result="shape"/></filter><filter id="filter1_d_421_4547" x=".027" y="69.055" width="472" height="634.729" filterUnits="userSpaceOnUse" color-interpolation-filters="sRGB"><feFlood flood-opacity="0" result="BackgroundImageFix"/><feColorMatrix in="SourceAlpha" values="0 0 0 0 0 0 0 0 0 0 0 0 0 0 0 0 0 0 127 0" result="hardAlpha"/><feOffset dx="16" dy="8"/><feGaussianBlur stdDeviation="4"/><feComposite in2="hardAlpha" operator="out"/><feColorMatrix values="0 0 0 0 0 0 0 0 0 0 0 0 0 0 0 0 0 0 0.2 0"/><feBlend in2="BackgroundImageFix" result="effect1_dropShadow_421_4547"/><feBlend in="SourceGraphic" in2="effect1_dropShadow_421_4547" result="shape"/></filter></defs></svg>

<svg width="522" height="704" viewBox="0 0 522 704" fill="none" xmlns="http://www.w3.org/2000/svg">
<g filter="url(#filter0_d_421_4547)">
<path d="M311.25 0H62.25C28.0125 0 0.311257 30.9503 0.311257 68.7783L0 619.005C0 656.833 27.7012 687.783 61.9387 687.783H435.75C469.987 687.783 498 656.833 498 619.005V206.335L311.25 0ZM280.125 206.335V51.5838L420.187 206.335H280.125Z" fill="#F7FF1A"/>
</g>
<g filter="url(#filter1_d_421_4547)">
<path fill-rule="evenodd" clip-rule="evenodd" d="M280.027 69.0546H56.0273C25.2273 69.0546 0.30735 96.8974 0.30735 130.927L0.0273438 625.911C0.0273438 659.941 24.9473 687.784 55.7473 687.784H392.027C422.827 687.784 448.027 659.941 448.027 625.911V254.673L280.027 69.0546ZM252.027 254.673V115.459L378.027 254.673H252.027ZM132.909 567.758C122.874 567.758 114.739 575.893 114.739 585.928C114.739 595.962 122.874 604.097 132.909 604.097C142.943 604.097 151.078 595.962 151.078 585.928C151.078 575.893 142.943 567.758 132.909 567.758ZM132.886 376.3C122.862 376.288 114.739 368.158 114.739 358.131C114.739 348.096 122.874 339.961 132.909 339.961C142.943 339.961 151.078 348.096 151.078 358.131C151.078 368.158 142.955 376.288 132.931 376.3L132.909 376.3L132.886 376.3ZM116.909 405.695C97.046 399.016 82.7391 380.244 82.7391 358.131C82.7391 330.423 105.201 307.961 132.909 307.961C160.616 307.961 183.078 330.423 183.078 358.131C183.078 380.244 168.771 399.016 148.909 405.695V538.363C168.771 545.042 183.078 563.814 183.078 585.928C183.078 613.635 160.616 636.097 132.909 636.097C105.201 636.097 82.7391 613.635 82.7391 585.928C82.7391 563.814 97.046 545.042 116.909 538.363V405.695ZM258.121 301.258C264.369 307.506 264.369 317.637 258.121 323.885L239.875 342.131H272.434C288.005 342.131 302.939 348.317 313.949 359.327C324.96 370.338 331.146 385.271 331.146 400.843V538.363C351.008 545.042 365.315 563.814 365.315 585.928C365.315 613.635 342.854 636.097 315.146 636.097C287.438 636.097 264.976 613.635 264.976 585.928C264.976 563.814 279.283 545.042 299.146 538.363V400.843C299.146 393.758 296.332 386.964 291.322 381.955C286.313 376.945 279.518 374.131 272.434 374.131H239.875L258.121 392.377C264.369 398.625 264.369 408.756 258.121 415.004C251.872 421.252 241.742 421.252 235.493 415.004L189.934 369.445C183.685 363.196 183.685 353.066 189.934 346.817L235.493 301.258C241.742 295.009 251.872 295.009 258.121 301.258ZM315.146 567.758C305.111 567.758 296.976 575.893 296.976 585.928C296.976 595.962 305.111 604.097 315.146 604.097C325.181 604.097 333.315 595.962 333.315 585.928C333.315 575.893 325.181 567.758 315.146 567.758Z" fill="black"/>
</g>
<defs>
<filter id="filter0_d_421_4547" x="0" y="0" width="522" height="703.783" filterUnits="userSpaceOnUse" color-interpolation-filters="sRGB">
<feFlood flood-opacity="0" result="BackgroundImageFix"/>
<feColorMatrix in="SourceAlpha" type="matrix" values="0 0 0 0 0 0 0 0 0 0 0 0 0 0 0 0 0 0 127 0" result="hardAlpha"/>
<feOffset dx="16" dy="8"/>
<feGaussianBlur stdDeviation="4"/>
<feComposite in2="hardAlpha" operator="out"/>
<feColorMatrix type="matrix" values="0 0 0 0 0.968627 0 0 0 0 1 0 0 0 0 0.101961 0 0 0 0.2 0"/>
<feBlend mode="normal" in2="BackgroundImageFix" result="effect1_dropShadow_421_4547"/>
<feBlend mode="normal" in="SourceGraphic" in2="effect1_dropShadow_421_4547" result="shape"/>
</filter>
<filter id="filter1_d_421_4547" x="0.0273438" y="69.0546" width="472" height="634.729" filterUnits="userSpaceOnUse" color-interpolation-filters="sRGB">
<feFlood flood-opacity="0" result="BackgroundImageFix"/>
<feColorMatrix in="SourceAlpha" type="matrix" values="0 0 0 0 0 0 0 0 0 0 0 0 0 0 0 0 0 0 127 0" result="hardAlpha"/>
<feOffset dx="16" dy="8"/>
<feGaussianBlur stdDeviation="4"/>
<feComposite in2="hardAlpha" operator="out"/>
<feColorMatrix type="matrix" values="0 0 0 0 0 0 0 0 0 0 0 0 0 0 0 0 0 0 0.2 0"/>
<feBlend mode="normal" in2="BackgroundImageFix" result="effect1_dropShadow_421_4547"/>
<feBlend mode="normal" in="SourceGraphic" in2="effect1_dropShadow_421_4547" result="shape"/>
</filter>
</defs>
</svg>
